X:1
T:Er is een kindeke geboren op aard
T:Er is een kindeke geboren op aard
T:Julius Röntgen (1855-1932)
C:Julius Röntgen (1855-1932)
%%score [ 1 2 3 4 ]
L:1/8
M:3/4
K:G
V:1 treble nm="Soprano"
V:2 treble nm="Alto"
V:3 treble-8 nm="Tenor"
V:4 bass nm="Bass"
V:1
 G2 | B4 A2 | (GG) G2 B2 | d2 d2 e2 | d4 G2 | B4 A2 | (GG) G2 B2 | d2 d2 e2 | d6 | c2 e2 c2 | %10
w: 1.Er|ist een|kin- de- ke ge-|bo- ren op|aard, er|is een|kin- de- ke ge-|bo- ren op|aard.|'t Kwam op de|
w: 2.'t Kwam|op de|aar- * de en't|had er geen|huis. 't Kwam|op de|aar- * de en't|had er geen|huis.|'t Kwam op de|
w: 3.Er|is een|kin- de- ke ge-|bo- ren in|'t stro. Er|is een|kin- de- ke ge-|bo- ren in|'t stro.|'t Lag in een|
w: 4.'t Kwam|op de|aar- * de voor|ons al- le-|gaar. 't Kwam|op de|aar- * de voor|ons al- le-|gaar.|En't wenst ons|
 B2 d2 B2 | A2 B2 c2 | d6 | c2 e2 c2 | B2 d2 B2 | A2 B2 A2 | G4 |] %17
w: aar- de voor|ons al- le-|gaar,|'t Kwam op de|aar- de voor|ons al- le-|gaar.|
w: aar- de en|droeg al zijn|kruis.|'t Kwam op de|aar- de en|droeg al zijn|kruis.|
w: krib- bet- je|ge- dekt met|hooi.|'t Lag in een|krib- bet- je|ge- dekt met|hooi.|
w: al- len een|za- lig nieuw|jaar.|En't wenst ons|al- len een|za- lig nieuw|jaar.|
V:2
 D2 | G4 F2 | (DD) D2 G2 | G2 G2 G2 | G4 D2 | G4 F2 | (DD) D2 G2 | G2 G2 G2 | G6 | E2 E2 F2 | %10
w: 1.Er|ist een|kin- de- ke ge-|bo- ren op|aard, er|is een|kin- de- ke ge-|bo- ren op|aard.|'t Kwam op de|
w: 2.'t Kwam|op de|aar- * de en't|had er geen|huis. 't Kwam|op de|aar- * de en't|had er geen|huis.|'t Kwam op de|
w: 3.Er|is een|kin- de- ke ge-|bo- ren in|'t stro. Er|is een|kin- de- ke ge-|bo- ren in|'t stro.|'t Lag in een|
w: 4.'t Kwam|op de|aar- * de voor|ons al- le-|gaar. 't Kwam|op de|aar- * de voor|ons al- le-|gaar.|En't wenst ons|
 G2 G2 G2 | F2 G2 G2 | F6 | E2 E2 F2 | G2 G2 G2 | G2 G2 F2 | D4 |] %17
w: aar- de voor|ons al- le-|gaar,|'t Kwam op de|aar- de voor|ons al- le-|gaar.|
w: aar- de en|droeg al zijn|kruis.|'t Kwam op de|aar- de en|droeg al zijn|kruis.|
w: krib- bet- je|ge- dekt met|hooi.|'t Lag in een|krib- bet- je|ge- dekt met|hooi.|
w: al- len een|za- lig nieuw|jaar.|En't wenst ons|al- len een|za- lig nieuw|jaar.|
V:3
 B2 | d4 c2 | (BB) B2 d2 | B2 B2 B2 | B4 B2 | d4 c2 | (BB) B2 d2 | B2 B2 c2 | B6 | A2 c2 c2 | %10
w: 1.Er|ist een|kin- de- ke ge-|bo- ren op|aard, er|is een|kin- de- ke ge-|bo- ren op|aard.|'t Kwam op de|
w: 2.'t Kwam|op de|aar- * de en't|had er geen|huis. 't Kwam|op de|aar- * de en't|had er geen|huis.|'t Kwam op de|
w: 3.Er|is een|kin- de- ke ge-|bo- ren in|'t stro. Er|is een|kin- de- ke ge-|bo- ren in|'t stro.|'t Lag in een|
w: 4.'t Kwam|op de|aar- * de voor|ons al- le-|gaar. 't Kwam|op de|aar- * de voor|ons al- le-|gaar.|En't wenst ons|
 d2 B2 d2 | d2 d2 G2 | A6 | A2 c2 c2 | d2 B2 d2 | e2 d2 c2 | B4 |] %17
w: aar- de voor|ons al- le-|gaar,|'t Kwam op de|aar- de voor|ons al- le-|gaar.|
w: aar- de en|droeg al zijn|kruis.|'t Kwam op de|aar- de en|droeg al zijn|kruis.|
w: krib- bet- je|ge- dekt met|hooi.|'t Lag in een|krib- bet- je|ge- dekt met|hooi.|
w: al- len een|za- lig nieuw|jaar.|En't wenst ons|al- len een|za- lig nieuw|jaar.|
V:4
 G,2 | G,4 G,2 | (G,G,) G,2 G,2 | G,2 G,2 E,2 | G,4 G,2 | G,4 G,2 | (G,G,) G,2 G,2 | G,2 G,2 C,2 | %8
w: 1.Er|ist een|kin- de- ke ge-|bo- ren op|aard, er|is een|kin- de- ke ge-|bo- ren op|
w: 2.'t Kwam|op de|aar- * de en't|had er geen|huis. 't Kwam|op de|aar- * de en't|had er geen|
w: 3.Er|is een|kin- de- ke ge-|bo- ren in|'t stro. Er|is een|kin- de- ke ge-|bo- ren in|
w: 4.'t Kwam|op de|aar- * de voor|ons al- le-|gaar. 't Kwam|op de|aar- * de voor|ons al- le-|
 G,6 | A,2 A,2 A,2 | G,2 G,2 G,2 | D,2 G,2 E,2 | D,6 | A,2 A,2 A,2 | G,2 G,2 G,2 | C,2 D,2 D,2 | %16
w: aard.|'t Kwam op de|aar- de voor|ons al- le-|gaar,|'t Kwam op de|aar- de voor|ons al- le-|
w: huis.|'t Kwam op de|aar- de en|droeg al zijn|kruis.|'t Kwam op de|aar- de en|droeg al zijn|
w: 't stro.|'t Lag in een|krib- bet- je|ge- dekt met|hooi.|'t Lag in een|krib- bet- je|ge- dekt met|
w: gaar.|En't wenst ons|al- len een|za- lig nieuw|jaar.|En't wenst ons|al- len een|za- lig nieuw|
 G,4 |] %17
w: gaar.|
w: kruis.|
w: hooi.|
w: jaar.|

